apps/portfolio/src/portfolio/static/assets/img/backgrounds/qd7m2d0cwaxm2h2m43s5bujnjs2wazpl.svg

<svg
  width="750"
  height="750"
  viewBox="0 0 750 750"
  fill="#ffffff"
  xmlns="http://www.w3.org/2000/svg"
>
  <circle
    cx="375"
    cy="375"
    fill="#fff"
    r="375"
  />
  <path
    d="m300.85 426.98 h-29.32 c-9.133 0-16.564-7.427-16.564-16.564 v-16.342
      c0-0.965-0.682-1.8-1.693-2.079-10.167-2.769-19.97-6.843-29.137-12.104-0.832-0.477-1.812-0.381-2.434 0.24 l-11.673 11.673
      c-3.128 3.128-7.286 4.849-11.711 4.849-4.421 0-8.583-1.721-11.711-4.849 l-20.733-20.732
      c-3.128-3.129-4.852-7.29-4.852-11.712 0-4.425 1.724-8.586 4.852-11.711 l11.669-11.673
      c0.626-0.621 0.721-1.602 0.241-2.433-5.257-9.167-9.331-18.971-12.101-29.137-0.278-1.011-1.114-1.694-2.079-1.694 h-16.342
      c-9.132 0-16.563-7.431-16.563-16.563 v-29.32 c0-9.132 7.431-16.563 16.563-16.563 h16.342
      c0.965 0 1.801-0.679 2.079-1.694 2.77-10.163 6.844-19.966 12.104-29.137 0.477-0.831 0.382-1.812-0.24-2.434
      l-11.673-11.673 c-3.128-3.124-4.852-7.286-4.852-11.711 0-4.421 1.724-8.583 4.852-11.711 l20.733-20.733
      c3.128-3.128 7.286-4.848 11.711-4.848 s8.587 1.72 11.715 4.852 l11.669 11.669
      c0.622 0.622 1.599 0.717 2.434 0.241 9.167-5.261 18.967-9.331 29.133-12.104 1.018-0.279 1.697-1.114 1.697-2.079 v-16.343
      c0-9.132 7.431-16.563 16.564-16.563 h29.32 c9.132 0 16.563 7.431 16.563 16.563 v16.343
      c0 0.965 0.679 1.8 1.694 2.075 10.162 2.773 19.966 6.847 29.133 12.108 0.835 0.476 1.812 0.381 2.437-0.241
      l11.669-11.673 c6.474-6.469 16.953-6.473 23.426 4e-3 l2.194 2.194
      c6.847 6.843-3.502 17.212-10.357 10.356-1.351-1.167-3.082-4.016-4.902-2.193 l-11.673 11.669
      c-5.28 5.28-13.538 6.344-20.084 2.587-8.088-4.639-16.735-8.233-25.696-10.678-7.355-2.002-12.493-8.671-12.493-16.212
      v-16.339 c0-1.056-0.859-1.915-1.915-1.915 h-29.32 c-1.053 0-1.911 0.859-1.911 1.915 v16.343
      c0 7.541-5.139 14.206-12.493 16.212-8.965 2.445-17.613 6.035-25.7 10.674-6.542 3.757-14.801 2.693-20.081-2.587
      l-11.669-11.669 c-0.465-0.465-0.991-0.561-1.354-0.561-0.362 0-0.889 0.096-1.35 0.561 l-20.737 20.733
      c-0.462 0.461-0.561 0.992-0.561 1.35 0 0.363 0.099 0.893 0.561 1.355 l11.673 11.673
      c5.28 5.279 6.344 13.534 2.586 20.08-4.638 8.091-8.232 16.735-10.677 25.7-2.003 7.354-8.671 12.489-16.209 12.489
      h-16.342 c-1.056 0-1.915 0.862-1.915 1.915 v29.32 c0 1.056 0.859 1.915 1.915 1.915 h16.342
      c7.538 0 14.206 5.134 16.213 12.489 2.441 8.968 6.035 17.613 10.673 25.7 3.758 6.546 2.694 14.801-2.586 20.08
      l-11.669 11.673 c-0.466 0.462-0.561 0.992-0.561 1.354 0 0.359 0.099 0.889 0.561 1.355 l20.733 20.729
      c0.747 0.747 1.96 0.751 2.708 0 l11.669-11.669
      c5.28-5.28 13.539-6.344 20.085-2.587 8.087 4.639 16.731 8.232 25.695 10.678 7.355 2.002 12.494 8.67 12.494 16.212
      v16.338 c0 1.057 0.858 1.915 1.911 1.915 h29.32 c1.056 0 1.915-0.858 1.915-1.915 v-16.338
      c0-7.542 5.138-14.21 12.493-16.212 9.357-2.549 13.195 11.585 3.853 14.129-1.015 0.279-1.698 1.114-1.698 2.083 v16.338
      c0 9.133-7.431 16.564-16.563 16.564 z"
    fill="#4A76A8"
  />
  <path
    d="m217.16 271.49
      c0-48.432 48.698-81.631 93.574-64.534 9.045 3.453 3.845 17.144-5.218 13.691-35.416-13.5-73.712 12.791-73.712 50.843 0 30.952 26.07 56.137 57.633 54.287 9.651-0.584 10.555 14.053 0.862 14.625-39.799 2.342-73.139-29.396-73.139-68.912
      z"
    fill="#4A76A8"
  />
  <path
    d="m536.01 441.24-74.211-14.431 v-18.337 c20.84-14.218 32.124-34.352 34.58-56.965 10.819-0.859 19.356-9.934 19.356-20.966
      v-15.053 c17.635-7.667 15.255-33.405-3.403-37.746 v-5.81 c0-52.235-42.347-94.582-94.577-94.582 h-7.931
      c-52.235 0-94.578 42.347-94.578 94.578 v5.814 c-18.65 4.337-21.046 30.079-3.403 37.746 v15.053
      c0 11.032 8.538 20.107 19.356 20.966 2.144 19.729 11.391 37.788 25.978 50.346 2.793 2.407 5.661 4.612 8.602 6.619
      v18.337 l-74.211 14.431 c-39.154 7.614-69.671 29.686-69.671 70.411 v74.498 c0 16.483 13.362 29.846 29.846 29.846 h324.09
      c16.483 0 29.846-13.363 29.846-29.846 v-74.498 c0-40.592-30.331-62.763-69.672-70.411 z m-60.962 3.067
      c-5.318 7.732-13.447 19.535-22.229 32.245-3.578 5.185-9.998 5.845-12.508 4.342 l-11.57-6.939
      c11.284-6.665 26.897-18.109 31.635-32.502 l14.672 2.854 z m-61.261 21.107 c-11.123-5.6-33.298-19.436-33.359-32.513
      v-0.057-16.285 c21.316 9.193 45.379 9.205 66.723 0 v16.285 c0 13.099-22.229 26.966-33.364 32.57 z m-83.893-193.49
      c0-30.044 16.663-56.27 41.234-69.919 v9.182 c0 9.681 14.648 9.697 14.648 0 v-15.496
      c6.573-2.079 13.508-3.326 20.687-3.624 v36.217 c0 9.682 14.649 9.697 14.649 0 v-36.217
      c7.179 0.298 14.118 1.545 20.69 3.624 v15.496 c0 9.681 14.649 9.697 14.649 0 v-9.182
      c24.57 13.649 41.233 39.875 41.233 69.919 v5.295 h-167.79 v-5.295 z m-10.124 19.943 h188.04
      c7.019 0 7.012 10.609 0 10.609 h-188.04 c-7.023 0-7.015-10.609 0-10.609 z m25.612 52.22
      c-0.084-3.983-3.338-7.168-7.324-7.168-1.221-0.301-11.57 1.904-11.57-6.382 v-13.409 h174.6 v13.409
      c0 8.27-10.624 6.149-11.57 6.382-3.983 0-7.237 3.185-7.325 7.168-0.392 18.31-8.174 35.316-21.347 46.661-27.973 24.086-66.139 24.09-94.112 0-13.176-11.345-20.958-28.351-21.351-46.661
      z m21.816 97.362
      c4.742 14.393 20.352 25.837 31.639 32.502-11.596 6.21-10.776 8.068-16.044 7.446-3.277-0.393-6.218-2.216-8.095-4.932-8.758-12.681-16.861-24.449-22.171-32.162
      l14.671-2.854 z m-84.507 159.89 h-30.952 c-8.392 0-15.198-6.805-15.198-15.197 v-74.498
      c0-21.949 9.972-37.124 31.845-47.607 0.885 3.899 14.305 40.325 14.305 91.225 v46.077 z m123.77 0 h-109.12 v-46.077
      c0-55.149-13.924-90.66-15.293-96.672 8.552-2.842 2.201-0.653 54.802-11.242 15.117 21.969 43.331 62.958 59.963 86.597 6.317 8.976 9.651 19.52 9.651 30.495
      v36.899 z m7.324-67.531
      c-1.457-2.857-3.124-5.627-4.993-8.289-5.623-7.988-12.921-18.471-20.535-29.461 2.262-0.5 4.471-1.37 6.543-2.61
      l18.985-11.387 18.99 11.387
      c2.067 1.24 4.28 2.11 6.542 2.61-7.614 10.982-14.912 21.465-20.534 29.461-1.873 2.662-3.54 5.432-4.998 8.289 z
      m177.25 52.334 c0 8.392-6.801 15.197-15.197 15.197 h-30.953 v-27.633 c0-9.682-14.648-9.697-14.648 0 v27.633 h-109.12
      v-36.899
      c0-10.975 3.337-21.519 9.651-30.491 9.46-13.447 48.412-69.656 59.967-86.601 52.574 10.586 46.234 8.396 54.798 11.242-1.064 4.505-13.39 38.002-15.091 85.518-0.351 9.704 14.29 10.181 14.637 0.526 1.648-45.982 12.928-75.569 14.114-80.597 21.874 10.483 31.845 25.658 31.845 47.604
      v74.501 z"
    fill="#4A76A8"
  />
</svg>

<?xml version="1.0" encoding="UTF-8"?> <svg xmlns="http://www.w3.org/2000/svg" width="750" height="750" viewBox="0 0 750 750" fill="none"> <circle cx="375" cy="375" r="375" fill="white"></circle> <path d="M300.847 426.982H271.527C262.394 426.982 254.963 419.555 254.963 410.418V394.076C254.963 393.111 254.281 392.276 253.27 391.997C243.103 389.228 233.3 385.154 224.133 379.893C223.301 379.416 222.321 379.512 221.699 380.133L210.026 391.806C206.898 394.934 202.74 396.655 198.315 396.655C193.894 396.655 189.732 394.934 186.604 391.806L165.871 371.074C162.743 367.945 161.019 363.784 161.019 359.362C161.019 354.937 162.743 350.776 165.871 347.651L177.54 335.978C178.166 335.357 178.261 334.376 177.781 333.545C172.524 324.378 168.45 314.574 165.68 304.408C165.402 303.397 164.566 302.714 163.601 302.714H147.259C138.127 302.714 130.696 295.283 130.696 286.151V256.831C130.696 247.699 138.127 240.268 147.259 240.268H163.601C164.566 240.268 165.402 239.589 165.68 238.574C168.45 228.411 172.524 218.608 177.784 209.437C178.261 208.606 178.166 207.625 177.544 207.003L165.871 195.33C162.743 192.206 161.019 188.044 161.019 183.619C161.019 179.198 162.743 175.036 165.871 171.908L186.604 151.175C189.732 148.047 193.89 146.327 198.315 146.327C202.74 146.327 206.902 148.047 210.03 151.179L221.699 162.848C222.321 163.47 223.298 163.565 224.133 163.089C233.3 157.828 243.1 153.758 253.266 150.985C254.284 150.706 254.963 149.871 254.963 148.906V132.563C254.963 123.431 262.394 116 271.527 116H300.847C309.979 116 317.41 123.431 317.41 132.563V148.906C317.41 149.871 318.089 150.706 319.104 150.981C329.266 153.754 339.07 157.828 348.237 163.089C349.072 163.565 350.049 163.47 350.674 162.848L362.343 151.175C368.817 144.706 379.296 144.702 385.769 151.179L387.963 153.373C394.81 160.216 384.461 170.585 377.606 163.729C376.255 162.562 374.524 159.713 372.704 161.536L361.031 173.205C355.751 178.485 347.493 179.549 340.947 175.792C332.859 171.153 324.212 167.559 315.251 165.114C307.896 163.112 302.758 156.443 302.758 148.902V132.563C302.758 131.507 301.899 130.648 300.843 130.648H271.523C270.47 130.648 269.612 131.507 269.612 132.563V148.906C269.612 156.447 264.473 163.112 257.119 165.118C248.154 167.563 239.506 171.153 231.419 175.792C224.877 179.549 216.618 178.485 211.338 173.205L199.669 161.536C199.204 161.071 198.678 160.975 198.315 160.975C197.953 160.975 197.426 161.071 196.965 161.536L176.228 182.269C175.766 182.73 175.667 183.261 175.667 183.619C175.667 183.982 175.766 184.512 176.228 184.974L187.901 196.647C193.181 201.926 194.245 210.181 190.487 216.727C185.849 224.818 182.255 233.462 179.81 242.427C177.807 249.781 171.139 254.916 163.601 254.916H147.259C146.203 254.916 145.344 255.778 145.344 256.831V286.151C145.344 287.207 146.203 288.066 147.259 288.066H163.601C171.139 288.066 177.807 293.2 179.814 300.555C182.255 309.523 185.849 318.168 190.487 326.255C194.245 332.801 193.181 341.056 187.901 346.335L176.232 358.008C175.766 358.47 175.671 359 175.671 359.362C175.671 359.721 175.77 360.251 176.232 360.717L196.965 381.446C197.712 382.193 198.925 382.197 199.673 381.446L211.342 369.777C216.622 364.497 224.881 363.433 231.427 367.19C239.514 371.829 248.158 375.422 257.122 377.868C264.477 379.87 269.616 386.538 269.616 394.08V410.418C269.616 411.475 270.474 412.333 271.527 412.333H300.847C301.903 412.333 302.762 411.475 302.762 410.418V394.08C302.762 386.538 307.9 379.87 315.255 377.868C324.612 375.319 328.45 389.453 319.108 391.997C318.093 392.276 317.41 393.111 317.41 394.08V410.418C317.41 419.551 309.979 426.982 300.847 426.982V426.982Z" fill="#4A76A8"></path> <path d="M217.156 271.491C217.156 223.059 265.854 189.86 310.73 206.957C319.775 210.41 314.575 224.101 305.512 220.648C270.096 207.148 231.8 233.439 231.8 271.491C231.8 302.443 257.87 327.628 289.433 325.778C299.084 325.194 299.988 339.831 290.295 340.403C250.496 342.745 217.156 311.007 217.156 271.491Z" fill="#4A76A8"></path> <path d="M536.007 441.245L461.796 426.814V408.477C482.636 394.259 493.92 374.125 496.376 351.512C507.195 350.653 515.732 341.578 515.732 330.546V315.493C533.367 307.826 530.987 282.088 512.329 277.747V271.937C512.329 219.702 469.982 177.355 417.752 177.355H409.821C357.586 177.355 315.243 219.702 315.243 271.933V277.747C296.593 282.084 294.197 307.826 311.84 315.493V330.546C311.84 341.578 320.378 350.653 331.196 351.512C333.34 371.241 342.587 389.3 357.174 401.858C359.967 404.265 362.835 406.47 365.776 408.477V426.814L291.565 441.245C252.411 448.859 221.894 470.931 221.894 511.656V586.154C221.894 602.637 235.256 616 251.74 616H575.833C592.316 616 605.679 602.637 605.679 586.154V511.656C605.679 471.064 575.348 448.893 536.007 441.245V441.245ZM475.045 444.312C469.727 452.044 461.598 463.847 452.816 476.557C449.238 481.742 442.818 482.402 440.308 480.899L428.738 473.96C440.022 467.295 455.635 455.851 460.373 441.458L475.045 444.312ZM413.784 465.419C402.661 459.819 380.486 445.983 380.425 432.906C380.425 432.887 380.425 432.868 380.425 432.849V416.564C401.741 425.757 425.804 425.769 447.148 416.564V432.849C447.148 445.948 424.919 459.815 413.784 465.419ZM329.891 271.933C329.891 241.889 346.554 215.663 371.125 202.014V211.196C371.125 220.877 385.773 220.893 385.773 211.196V195.7C392.346 193.621 399.281 192.374 406.46 192.076V228.293C406.46 237.975 421.109 237.99 421.109 228.293V192.076C428.288 192.374 435.227 193.621 441.799 195.7V211.196C441.799 220.877 456.448 220.893 456.448 211.196V202.014C481.018 215.663 497.681 241.889 497.681 271.933V277.228H329.891V271.933ZM319.767 291.876H507.805C514.824 291.876 514.817 302.485 507.805 302.485H319.767C312.744 302.485 312.752 291.876 319.767 291.876V291.876ZM345.379 344.096C345.295 340.113 342.041 336.928 338.055 336.928C336.834 336.627 326.485 338.832 326.485 330.546V317.137H501.084V330.546C501.084 338.816 490.46 336.695 489.514 336.928C485.531 336.928 482.277 340.113 482.189 344.096C481.797 362.406 474.015 379.412 460.842 390.757C432.869 414.843 394.703 414.847 366.73 390.757C353.554 379.412 345.772 362.406 345.379 344.096ZM367.195 441.458C371.937 455.851 387.547 467.295 398.834 473.96C387.238 480.17 388.058 482.028 382.79 481.406C379.513 481.013 376.572 479.19 374.695 476.474C365.937 463.793 357.834 452.025 352.524 444.312L367.195 441.458ZM282.688 601.351H251.736C243.344 601.351 236.538 594.546 236.538 586.154V511.656C236.538 489.707 246.51 474.532 268.383 464.049C269.268 467.948 282.688 504.374 282.688 555.274V601.351ZM406.46 601.351H297.337V555.274C297.337 500.125 283.413 464.614 282.044 458.602C290.596 455.76 284.245 457.949 336.846 447.36C351.963 469.329 380.177 510.318 396.809 533.957C403.126 542.933 406.46 553.477 406.46 564.452V601.351ZM413.784 533.82C412.327 530.963 410.66 528.193 408.791 525.531C403.168 517.543 395.87 507.06 388.256 496.07C390.518 495.57 392.727 494.7 394.799 493.46L413.784 482.073L432.774 493.46C434.841 494.7 437.054 495.57 439.316 496.07C431.702 507.052 424.404 517.535 418.782 525.531C416.909 528.193 415.242 530.963 413.784 533.82V533.82ZM591.03 586.154C591.03 594.546 584.229 601.351 575.833 601.351H544.88V573.718C544.88 564.036 530.232 564.021 530.232 573.718V601.351H421.109V564.452C421.109 553.477 424.446 542.933 430.76 533.961C440.22 520.514 479.172 464.305 490.727 447.36C543.301 457.946 536.961 455.756 545.525 458.602C544.461 463.107 532.135 496.604 530.434 544.12C530.083 553.824 544.724 554.301 545.071 544.646C546.719 498.664 557.999 469.077 559.185 464.049C581.059 474.532 591.03 489.707 591.03 511.653V586.154Z" fill="#4A76A8"></path> </svg>
